X: 11092
P: Copyright.
M: C
L: 1/16
K: A
|: e2 |\
ae3 ce3 agfe dcBA | d2c2B2^a2 b3BB3e |\
a3e c3e agfe dcBA | (3(G2A2B2) (3(E2F2G2) A3A,A,3e |
a3e c3e agfe dcBA | d3cB3^a b3BB3g |\
(3(a2f2a2) (3(g2e2g2) (3(f2d2f2) (3(e2c2e2) |\
(3(d2B2A2) (3(G2A2B2) AA,A,2 :|


